X:295
T:the Cottage
A:Wyresdale, Lancashire
B:H.S.J. Jackson, 1823
L:1/8
M:6/8
O:England
Z:Richard Robinson 
%%TranscriptionNotes:(dance notes not transcribed, incompletely legible)
%%TUNEURL: http://www.leeds.ac.uk/music/Info/RRTuneBk/gettune/00000e1a.html
%%ID:00000e1a
K:F
c |\
A2F TFGA | B>AB dcB | A2F FEF | EGE D2c | \
A2F TFGA | BAB dcB | AcA BGE | F3 F2 ::
c |\
{e}f2c TcBA | B2c d2e | {e}f2c cAF | E2F G2c | \
f2c TcBA | Bcd def | cAF G2A | F3 F2 ::
%page:37
